public/library/paradigm-text-light.svg

<svg width="140" height="32" viewBox="0 0 140 32" fill="none" xmlns="http://www.w3.org/2000/svg"><path d="M28 9.84634L10.7692 0L8.61538 1.23168V3.69267L6.46154 2.46099L4.30769 3.69267V6.15367L2.15385 4.92198L0 6.15367V25.8463L2.15385 27.078L4.30769 25.8463V28.3073L6.46154 29.539L8.61538 28.3073V30.7683L10.7692 32L28 22.1537V19.6927L25.8462 18.461L28 17.2293V14.7683L25.8462 13.5366L28 12.305V9.84634ZM4.30769 23.3853L2.15385 24.617V7.38534L4.30769 8.61702V23.3853ZM10.7692 24.6147V22.1537L19.3846 17.2317L21.5385 18.4634L10.7692 24.6147ZM17.2308 16L10.7692 19.6927V12.3073L17.2308 16ZM19.3846 14.7683L10.7692 9.84634V7.38534L21.5385 13.539L19.3846 14.7683ZM6.46154 4.92198L8.61538 6.15367V8.61466L6.46154 7.38298V4.92198ZM6.46154 9.84634L8.61538 11.078V20.9244L6.46154 22.156V9.84634ZM6.46154 24.6147L8.61538 23.383V25.844L6.46154 27.0756V24.6147ZM25.8462 20.922L10.7692 29.5366V27.0756L23.6923 19.6903L25.8462 20.922ZM25.8462 16L23.6923 17.2317L21.5385 16L23.6923 14.7683L25.8462 16ZM23.6923 12.3073L10.7692 4.92198V2.46099L25.8462 11.0756L23.6923 12.3073Z" fill="#00E100"></path><g opacity="1"><path d="M38.9292 22.7264C38.9319 22.9865 39.6678 23.2626 40.7096 23.3938L41.4433 23.4572L41.4562 24.7103L33.9608 24.7879L33.9478 23.5348L34.5146 23.4581C35.5297 23.2821 36.118 23.0159 36.1154 22.7557L35.9733 9.04186C35.9706 8.78174 35.3768 8.52773 34.3584 8.37269L33.7903 8.30766L33.7773 7.05454L40.0195 6.98989C44.5119 6.94336 47.9329 8.46861 47.9691 11.968C48.0035 15.2783 45.0968 17.7441 40.3019 18.2666L40.005 16.9927C42.8857 16.5844 45.0725 15.4032 45.0474 12.9677C45.0201 10.3432 43.2509 8.46975 39.4441 8.50923L38.7822 8.51609L38.9294 22.7266L38.9292 22.7264Z" fill="black"></path><path d="M48.7148 21.209C48.7148 18.5134 50.8902 17.9695 52.9475 17.6384C54.0353 17.4492 54.7445 17.1418 55.2884 16.5506L55.312 15.4156C55.3357 13.5713 54.5319 12.8382 53.3732 12.8382C52.309 12.8382 51.9307 13.3112 51.9307 13.9023C51.9307 14.3043 52.0253 14.6118 52.0253 14.8246C52.0253 15.132 51.5523 15.3685 50.6776 15.3685C49.9445 15.3685 49.2116 15.132 49.2116 14.8482C49.2116 13.7841 51.789 11.0885 54.3427 11.0885C56.5181 11.0885 57.866 11.9633 57.8187 14.5172L57.7004 19.9556C57.6531 22.0839 58.2443 22.6276 59.2848 22.6276C59.5449 22.6276 59.7104 22.604 59.9469 22.533L60.0179 22.5803C59.7341 23.739 58.8118 24.5192 57.677 24.5192C56.471 24.5192 55.7854 23.7625 55.407 22.6512C54.6976 23.8809 53.681 24.6376 52.2621 24.6376C50.3232 24.6376 48.7152 23.408 48.7152 21.209H48.7148ZM53.0656 22.8406C53.9169 22.8406 54.6263 22.3913 55.1938 21.8238L55.2648 17.8039C54.91 18.3005 54.3662 18.5607 53.5385 18.8208C52.2617 19.2228 51.1976 19.6011 51.1976 20.9961C51.1976 22.2021 51.9543 22.8406 53.0656 22.8406Z" fill="black"></path><path d="M62.7621 14.5644C62.7621 14.328 62.5729 14.1388 60.9414 13.3821V12.531L64.2518 11.1121H64.843L65.2214 13.5476C66.1907 11.9632 67.042 11.1358 68.4609 11.1358C69.2176 11.1358 69.9031 11.4195 69.9031 11.7033C69.9031 12.862 69.1228 14.4225 68.7681 14.4225C68.6971 14.4225 68.6498 14.3989 68.4843 14.3043C67.9168 13.9732 67.3729 13.7604 66.8054 13.7604C66.3088 13.7604 65.7885 14.0442 65.3156 14.4698V22.2492C65.3156 22.5093 65.9304 22.7695 67.0891 22.935L67.8222 23.0296V24.1646H60.9885V23.0296L61.4142 22.935C62.431 22.7222 62.7619 22.5093 62.7619 22.2492V14.5642L62.7621 14.5644Z" fill="black"></path><path d="M70.3496 21.209C70.3496 18.5134 72.525 17.9695 74.5823 17.6384C75.6701 17.4492 76.3793 17.1418 76.9232 16.5506L76.9468 15.4156C76.9705 13.5713 76.1666 12.8382 75.0079 12.8382C73.9438 12.8382 73.5654 13.3112 73.5654 13.9023C73.5654 14.3043 73.66 14.6118 73.66 14.8246C73.66 15.132 73.1871 15.3685 72.3123 15.3685C71.5793 15.3685 70.8464 15.132 70.8464 14.8482C70.8464 13.7841 73.4238 11.0885 75.9775 11.0885C78.1528 11.0885 79.5007 11.9633 79.4534 14.5172L79.3352 19.9556C79.2879 22.0839 79.8791 22.6276 80.9196 22.6276C81.1797 22.6276 81.3452 22.604 81.5817 22.533L81.6526 22.5803C81.3688 23.739 80.4466 24.5192 79.3117 24.5192C78.1057 24.5192 77.4201 23.7625 77.0418 22.6512C76.3324 23.8809 75.3157 24.6376 73.8969 24.6376C71.958 24.6376 70.35 23.408 70.35 21.209H70.3496ZM74.7003 22.8406C75.5516 22.8406 76.261 22.3913 76.8286 21.8238L76.8995 17.8039C76.5448 18.3005 76.0009 18.5607 75.1733 18.8208C73.8965 19.2228 72.8324 19.6011 72.8324 20.9961C72.8324 22.2021 73.5891 22.8406 74.7003 22.8406Z" fill="black"></path><path d="M92.5238 24.8032H91.909L91.5779 22.9116C90.2065 23.8575 88.7404 24.6378 87.3691 24.6378C84.4132 24.6378 82.0723 22.1076 82.0723 18.3007C82.0723 13.9262 84.957 11.136 88.4566 11.136C89.6861 11.136 90.5847 11.3725 91.2941 11.8218V7.80802C91.2941 7.57155 91.0815 7.38237 89.4262 6.48397V5.65631L93.2568 4.35571H93.8244V19.9086C93.8244 21.9659 94.4156 22.5096 95.2903 22.5096C95.5031 22.5096 95.7158 22.4859 95.9524 22.4386L96.0234 22.4859V23.7629L92.5238 24.8032ZM88.953 22.6041C89.828 22.6041 90.5847 22.3913 91.2939 22.013V16.1488C91.2939 14.0444 89.9699 12.6729 88.1256 12.6729C86.2338 12.6729 84.744 14.0444 84.744 17.0238C84.744 20.618 86.3757 22.6041 88.953 22.6041Z" fill="black"></path><path d="M96.944 24.1647V23.0296L97.3694 22.935C98.3863 22.6986 98.7171 22.4857 98.7171 22.2256V14.5643C98.7171 14.3278 98.5281 14.1386 96.8965 13.3819V12.5308L100.704 11.112H101.271V22.2256C101.271 22.4857 101.626 22.6986 102.619 22.935L103.044 23.0296V24.1647H96.9438H96.944ZM101.791 6.73762C101.791 7.84904 101.035 8.53462 99.9233 8.53462C98.8119 8.53462 98.0552 7.84885 98.0552 6.73762C98.0552 5.64984 98.8119 4.96426 99.9233 4.96426C101.058 4.96426 101.791 5.65003 101.791 6.73762Z" fill="black"></path><path d="M108.193 19.8611C107.649 20.2867 107.223 20.7833 107.223 21.2799C107.223 21.7527 107.649 21.9657 108.997 22.0603L112.828 22.344C115.145 22.5332 116.469 23.6917 116.469 25.5599C116.469 28.3737 113.513 31.0222 109.21 31.0222C105.687 31.0222 103.984 29.7216 103.984 27.7591C103.984 26.5059 104.859 25.7019 106.94 24.1885C105.923 23.9757 104.576 23.2426 104.576 22.2969C104.576 21.3276 105.521 20.4526 107.129 19.6013C105.498 18.9865 104.363 17.6386 104.363 15.7707C104.363 12.9805 106.538 11.136 109.565 11.136C110.723 11.136 111.74 11.4907 112.497 12.0819L116.398 12.1765V13.4059L113.774 13.9971C114.057 14.4464 114.247 14.9665 114.247 15.6288C114.247 18.1352 112.095 19.9322 109.092 19.9322C108.784 19.9322 108.501 19.9085 108.193 19.8613L108.193 19.8611ZM109.943 29.5324C112.142 29.5324 113.939 28.2318 113.939 26.3875C113.939 25.2524 113.324 24.7559 111.432 24.614L108.311 24.4011C107.294 25.0869 106.419 26.0801 106.419 27.026C106.419 28.4446 107.696 29.5326 109.943 29.5326V29.5324ZM111.858 16.1723C111.858 14.3516 110.889 12.7436 109.044 12.7436C107.768 12.7436 106.869 13.6186 106.869 15.0372C106.869 16.8342 107.791 18.4659 109.659 18.4659C110.983 18.4659 111.858 17.5909 111.858 16.1723Z" fill="black"></path><path d="M119.59 14.5654C119.59 14.3289 119.401 14.1397 117.77 13.383V12.5319L121.08 11.1131H121.671L121.955 12.9576C123.468 12.0117 125.076 11.1131 126.613 11.1131C127.984 11.1131 128.978 11.586 129.474 13.052C131.059 12.0826 132.737 11.1131 134.345 11.1131C136.355 11.1131 137.561 12.1772 137.561 16.0788V22.2504C137.561 22.5105 137.916 22.7233 138.932 22.9361L139.334 23.0307V24.1658H133.257V23.0307L133.659 22.9361C134.676 22.6997 135.007 22.5105 135.007 22.2504V16.4335C135.007 14.1872 134.132 13.2177 132.288 13.2177C131.389 13.2177 130.467 13.5014 129.71 13.9034C129.828 14.4946 129.876 15.2277 129.876 16.0788V22.2504C129.876 22.5105 130.207 22.7233 131.2 22.9361L131.625 23.0307V24.1658H125.572V23.0307L125.974 22.9361C126.991 22.6997 127.322 22.5105 127.322 22.2504V16.4335C127.322 14.1872 126.447 13.2177 124.579 13.2177C123.751 13.2177 122.876 13.4778 122.143 13.8325V22.2505C122.143 22.5107 122.474 22.6998 123.491 22.9363L123.893 23.0309V24.166H117.816V23.0309L118.242 22.9363C119.258 22.7235 119.589 22.5107 119.589 22.2505V14.5656L119.59 14.5654Z" fill="black"></path></g></svg>

<svg xmlns="http://www.w3.org/2000/svg" width="140" height="32" fill="none" viewBox="0 0 140 32"><path fill="#00e100" d="M28 9.846 10.77 0 8.614 1.232v2.46L6.462 2.462 4.308 3.693v2.46L2.154 4.923 0 6.154v19.692l2.154 1.232 2.154-1.232v2.461l2.154 1.232 2.153-1.232v2.461L10.77 32 28 22.154v-2.461l-2.154-1.232L28 17.229v-2.46l-2.154-1.232L28 12.305zM4.308 23.386l-2.154 1.231V7.385l2.154 1.232zm6.461 1.229v-2.461l8.616-4.922 2.153 1.231zM17.231 16l-6.462 3.693v-7.386zm2.154-1.232-8.616-4.922v-2.46l10.77 6.153zM6.462 4.922l2.153 1.232v2.46L6.462 7.384zm0 4.924 2.153 1.232v9.846l-2.153 1.232zm0 14.769 2.153-1.232v2.461l-2.153 1.232zm19.384-3.693L10.77 29.537v-2.461l12.923-7.386zm0-4.922-2.154 1.232L21.538 16l2.154-1.232zm-2.154-3.693L10.77 4.922V2.461l15.077 8.615z"/><g fill="#000"><path d="M38.93 22.726c.002.26.738.537 1.78.668l.733.063.013 1.253-7.495.078-.013-1.253.567-.077c1.015-.176 1.603-.442 1.6-.702l-.142-13.714c-.002-.26-.596-.514-1.615-.67l-.568-.064-.013-1.253 6.243-.065c4.492-.047 7.913 1.479 7.95 4.978.034 3.31-2.873 5.776-7.668 6.299l-.297-1.274c2.88-.409 5.067-1.59 5.042-4.025-.027-2.625-1.796-4.498-5.603-4.459l-.662.007zM48.715 21.209c0-2.696 2.175-3.24 4.232-3.57 1.088-.19 1.797-.497 2.341-1.088l.024-1.135c.024-1.845-.78-2.578-1.939-2.578-1.064 0-1.442.473-1.442 1.064 0 .402.094.71.094.923 0 .307-.473.543-1.347.543-.733 0-1.466-.236-1.466-.52 0-1.064 2.577-3.76 5.13-3.76 2.176 0 3.524.875 3.477 3.43l-.119 5.438c-.047 2.128.544 2.672 1.585 2.672.26 0 .425-.024.662-.095l.07.047c-.283 1.159-1.205 1.94-2.34 1.94-1.206 0-1.892-.758-2.27-1.869-.71 1.23-1.726 1.987-3.145 1.987-1.939 0-3.547-1.23-3.547-3.429m4.35 1.632c.852 0 1.561-.45 2.129-1.017l.07-4.02c-.354.497-.898.757-1.726 1.017-1.276.402-2.34.78-2.34 2.175 0 1.206.756 1.845 1.868 1.845M62.762 14.564c0-.236-.19-.425-1.82-1.182v-.851l3.31-1.419h.591l.378 2.436c.97-1.585 1.821-2.412 3.24-2.412.757 0 1.442.284 1.442.567 0 1.159-.78 2.72-1.135 2.72-.07 0-.118-.024-.284-.119-.567-.33-1.111-.544-1.679-.544-.496 0-1.017.284-1.49.71v7.78c0 .26.615.52 1.774.685l.733.095v1.135h-6.834V23.03l.426-.095c1.017-.213 1.348-.426 1.348-.686zM70.35 21.209c0-2.696 2.175-3.24 4.232-3.57 1.088-.19 1.797-.497 2.341-1.088l.024-1.135c.023-1.845-.78-2.578-1.94-2.578-1.063 0-1.442.473-1.442 1.064 0 .402.095.71.095.923 0 .307-.473.543-1.348.543-.733 0-1.466-.236-1.466-.52 0-1.064 2.578-3.76 5.132-3.76 2.175 0 3.523.875 3.475 3.43l-.118 5.438c-.047 2.128.544 2.672 1.585 2.672.26 0 .425-.024.662-.095l.07.047c-.283 1.159-1.205 1.94-2.34 1.94-1.206 0-1.892-.758-2.27-1.869-.71 1.23-1.726 1.987-3.145 1.987-1.939 0-3.547-1.23-3.547-3.429m4.35 1.632c.852 0 1.561-.45 2.129-1.017l.07-4.02c-.354.497-.898.757-1.726 1.017-1.276.402-2.34.78-2.34 2.175 0 1.206.756 1.845 1.867 1.845M92.524 24.803h-.615l-.331-1.891c-1.371.946-2.838 1.726-4.209 1.726-2.956 0-5.297-2.53-5.297-6.337 0-4.375 2.885-7.165 6.385-7.165 1.23 0 2.128.237 2.837.686V7.808c0-.236-.212-.426-1.868-1.324v-.828l3.83-1.3h.568v15.553c0 2.057.592 2.6 1.466 2.6.213 0 .426-.023.662-.07l.071.047v1.277zm-3.571-2.199c.875 0 1.632-.213 2.34-.591v-5.864c0-2.105-1.323-3.476-3.167-3.476-1.892 0-3.382 1.371-3.382 4.35 0 3.595 1.632 5.581 4.209 5.581M96.944 24.165V23.03l.425-.095c1.017-.236 1.348-.45 1.348-.71v-7.66c0-.237-.189-.426-1.82-1.183v-.851l3.807-1.419h.567v11.114c0 .26.355.473 1.348.709l.425.095v1.135zm4.847-17.427c0 1.111-.756 1.797-1.868 1.797-1.111 0-1.868-.686-1.868-1.797 0-1.088.757-1.774 1.868-1.774 1.135 0 1.868.686 1.868 1.774M108.193 19.861c-.544.426-.97.922-.97 1.419 0 .473.426.686 1.774.78l3.831.284c2.317.19 3.641 1.348 3.641 3.216 0 2.814-2.956 5.462-7.259 5.462-3.523 0-5.226-1.3-5.226-3.263 0-1.253.875-2.057 2.956-3.57-1.017-.213-2.364-.946-2.364-1.892 0-.97.945-1.844 2.553-2.696-1.631-.614-2.766-1.962-2.766-3.83 0-2.79 2.175-4.635 5.202-4.635 1.158 0 2.175.355 2.932.946l3.901.095v1.229l-2.624.591c.283.45.473.97.473 1.632 0 2.506-2.152 4.303-5.155 4.303a6 6 0 0 1-.899-.07m1.75 9.671c2.199 0 3.996-1.3 3.996-3.145 0-1.135-.615-1.631-2.507-1.773l-3.121-.213c-1.017.686-1.892 1.68-1.892 2.625 0 1.419 1.277 2.507 3.524 2.507m1.915-13.36c0-1.82-.969-3.428-2.814-3.428-1.276 0-2.175.875-2.175 2.293 0 1.797.922 3.429 2.79 3.429 1.324 0 2.199-.875 2.199-2.294M119.59 14.565c0-.236-.189-.425-1.82-1.182v-.851l3.31-1.419h.591l.284 1.845c1.513-.946 3.121-1.845 4.658-1.845 1.371 0 2.365.473 2.861 1.939 1.585-.97 3.263-1.939 4.871-1.939 2.01 0 3.216 1.064 3.216 4.966v6.171c0 .26.355.473 1.371.686l.402.095v1.135h-6.077V23.03l.402-.095c1.017-.236 1.348-.425 1.348-.686v-5.817c0-2.246-.875-3.215-2.719-3.215-.899 0-1.821.283-2.578.685.118.592.166 1.325.166 2.176v6.171c0 .26.331.473 1.324.686l.425.095v1.135h-6.053V23.03l.402-.095c1.017-.236 1.348-.425 1.348-.686v-5.817c0-2.246-.875-3.215-2.743-3.215-.828 0-1.703.26-2.436.614v8.418c0 .26.331.45 1.348.686l.402.095v1.135h-6.077v-1.135l.426-.095c1.016-.212 1.347-.425 1.347-.686v-7.684z"/></g></svg>
